public/img/wolfecorp.svg

<?xml version="1.0" encoding="UTF-8"?><svg fill="none" height="480" viewBox="0 0 460 48" width="4600" xmlns="http://www.w3.org/2000/svg"><path clip-rule="evenodd" d="m88.9426 22.8516c0 2.1402.3871 4.1541 1.1641 6.0417.7769 1.8905 1.8484 3.5258 3.2116 4.9114 1.3603 1.3856 2.9563 2.4879 4.7823 3.3069 1.826.8191 3.8094 1.2258 5.9524 1.2258 2.137 0 4.12-.4067 5.946-1.2258 1.829-.819 3.422-1.9213 4.785-3.3069s2.435-3.0209 3.209-4.9114c.777-1.8876 1.167-3.9015 1.167-6.0417 0-2.1429-.39-4.154-1.167-6.0445-.774-1.8877-1.846-3.5341-3.209-4.9422-1.363-1.4052-2.956-2.51594-4.785-3.33497-1.826-.81902-3.809-1.22853-5.946-1.22853-2.143 0-4.1264.40951-5.9524 1.22853-1.826.81903-3.422 1.92977-4.7823 3.33497-1.3632 1.4081-2.4347 3.0545-3.2116 4.9422-.777 1.8905-1.1641 3.9016-1.1641 6.0445zm-7.7442 0c0-3.1919.5974-6.1707 1.7951-8.9419 1.1949-2.7684 2.8217-5.18062 4.8777-7.2394 2.056-2.05598 4.4794-3.68 7.2702-4.87768 2.7909-1.197686 5.7616-1.79232055 8.9116-1.79232055 3.144 0 6.114.59463455 8.905 1.79232055 2.791 1.19768 5.214 2.8217 7.273 4.87768 2.056 2.05878 3.683 4.471 4.878 7.2394 1.195 2.7712 1.795 5.75 1.795 8.9419 0 3.1471-.6 6.1063-1.795 8.8747-1.195 2.7712-2.822 5.1862-4.878 7.2422-2.059 2.0559-4.482 3.6828-7.273 4.8777-2.791 1.1948-5.761 1.7923-8.905 1.7923-3.15 0-6.1207-.5975-8.9116-1.7923-2.7908-1.1949-5.2142-2.8218-7.2702-4.8777-2.056-2.056-3.6828-4.471-4.8777-7.2422-1.1977-2.7684-1.7951-5.7276-1.7951-8.8747zm71.3886-22.036203v37.016003h15.485v7.0542h-23.039v-44.070203zm39.597 44.070003h-7.551v-44.070283h24.613v6.860733h-17.062v11.20825h15.929v6.8636h-15.929zm34.877-44.070003h25.182v6.860733h-17.626v11.20827h16.238v6.6728h-16.238v12.4677h17.75v6.8607h-25.306zm40.857 22.036203c0-3.1919.575-6.1791 1.731-8.97 1.152-2.7908 2.748-5.21703 4.785-7.27301 2.033-2.05317 4.437-3.67439 7.208-4.84963 2.769-1.172441 5.77-1.75866055 9.004-1.75866055 4.235 0 8.243 1.15280055 12.022 3.46122055v8.24358c-1.93-1.4642-3.86-2.55809-5.792-3.27053-1.933-.71525-3.989-1.06866-6.168-1.06866-2.14 0-4.135.39829-5.983 1.19488-1.849.79658-3.428 1.88771-4.752 3.27051-1.321 1.3856-2.361 3.0236-3.116 4.9141-.757 1.8877-1.133 3.924-1.133 6.1062 0 2.1402.376 4.1456 1.133 6.0109.755 1.868 1.795 3.5089 3.116 4.9141 1.324 1.4053 2.898 2.5048 4.721 3.3014 1.826.7966 3.831 1.1977 6.014 1.1977 2.14 0 4.196-.3563 6.168-1.0715 1.971-.7124 3.943-1.7615 5.918-3.1499v8.1258c-2.014 1.2145-4.05 2.098-6.106 2.6393-2.059.547-4.093.8191-6.107.8191-3.276 0-6.297-.5778-9.065-1.7278-2.771-1.1528-5.164-2.7628-7.178-4.816-2.014-2.056-3.587-4.471-4.72-7.2422-1.133-2.7684-1.7-5.7696-1.7-9.0009zm57.666 0c0 2.1402.387 4.1541 1.164 6.0417.777 1.8905 1.848 3.5258 3.211 4.9114 1.364 1.3856 2.96 2.4879 4.786 3.3069 1.825.8191 3.808 1.2258 5.949 1.2258 2.137 0 4.123-.4067 5.949-1.2258 1.826-.819 3.422-1.9213 4.782-3.3069 1.363-1.3856 2.435-3.0209 3.212-4.9114.777-1.8876 1.164-3.9015 1.164-6.0417 0-2.1429-.387-4.154-1.164-6.0445-.777-1.8877-1.849-3.5341-3.212-4.9422-1.36-1.4052-2.956-2.51594-4.782-3.33497-1.826-.81902-3.812-1.22853-5.949-1.22853-2.141 0-4.124.40951-5.949 1.22853-1.826.81903-3.422 1.92977-4.786 3.33497-1.363 1.4081-2.434 3.0545-3.211 4.9422-.777 1.8905-1.164 3.9016-1.164 6.0445zm-7.742 0c0-3.1919.598-6.1707 1.793-8.9419 1.197-2.7684 2.821-5.18062 4.877-7.2394 2.056-2.05598 4.483-3.68 7.271-4.87768 2.793-1.197686 5.764-1.79232055 8.911-1.79232055s6.114.59463455 8.908 1.79232055c2.791 1.19768 5.214 2.8217 7.27 4.87768 2.056 2.05878 3.683 4.471 4.881 7.2394 1.192 2.7712 1.792 5.75 1.792 8.9419 0 3.1471-.6 6.1063-1.792 8.8747-1.198 2.7712-2.825 5.1862-4.881 7.2422-2.056 2.0559-4.479 3.6828-7.27 4.8777-2.794 1.1948-5.761 1.7923-8.908 1.7923s-6.118-.5975-8.911-1.7923c-2.788-1.1949-5.215-2.8218-7.271-4.8777-2.056-2.056-3.68-4.471-4.877-7.2422-1.195-2.7684-1.793-5.7276-1.793-8.8747zm71.327-1.7639h6.294c2.224 0 4.039-.5975 5.444-1.7952 1.408-1.1948 2.11-2.8637 2.11-5.0039 0-2.1401-.702-3.7866-2.11-4.94217-1.405-1.1528-3.22-1.73061-5.444-1.73061h-6.294zm0 23.7965h-7.492v-44.070205h13.786c2.224 0 4.258.297315 6.106.883535 1.849.58903 3.439 1.45854 4.783 2.61415 1.343 1.15561 2.384 2.56085 3.119 4.21573.732 1.65769 1.102 3.55659 1.102 5.69949 0 3.2733-.926 5.98-2.771 8.1173-1.849 2.143-4.241 3.6352-7.178 4.4738l12.97 18.0662h-8.878l-12.15-17.4379h-3.397zm48.221-23.9225h6.861c2.224 0 4.039-.575 5.447-1.7306 1.405-1.1528 2.109-2.8021 2.109-4.9422s-.704-3.7866-2.109-4.94219c-1.408-1.1528-3.223-1.73061-5.447-1.73061h-6.861zm6.734-20.147425c2.267 0 4.334.308535 6.205.917195 1.865.60585 3.469 1.47817 4.813 2.61134 1.343 1.13317 2.381 2.53842 3.116 4.21854.735 1.68015 1.102 3.58745 1.102 5.72755s-.367 4.0418-1.102 5.6967c-.735 1.6577-1.773 3.0545-3.116 4.1877-1.344 1.1332-2.948 2.0027-4.813 2.6113-1.871.6115-3.938.9116-6.205.9116h-6.734v17.1883h-7.557v-44.070225zm-426.8878 44.071125 18.7198-43.8515h6.8747l-18.7169 43.8515zm47.3391-43.85094h6.8775l-18.7197 43.85144h-6.8776zm-64.57505586 0h6.88597586l8.60538 19.43784h-6.88599z" fill="#fff" fill-rule="evenodd"/></svg>

<svg width="4600" height="480" viewBox="0 0 460 48" fill="none" xmlns="http://www.w3.org/2000/svg">
<path fill-rule="evenodd" clip-rule="evenodd" d="M88.9426 22.8516C88.9426 24.9918 89.3297 27.0057 90.1067 28.8933C90.8836 30.7838 91.9551 32.4191 93.3183 33.8047C94.6786 35.1903 96.2746 36.2926 98.1006 37.1116C99.9266 37.9307 101.91 38.3374 104.053 38.3374C106.19 38.3374 108.173 37.9307 109.999 37.1116C111.828 36.2926 113.421 35.1903 114.784 33.8047C116.147 32.4191 117.219 30.7838 117.993 28.8933C118.77 27.0057 119.16 24.9918 119.16 22.8516C119.16 20.7087 118.77 18.6976 117.993 16.8071C117.219 14.9194 116.147 13.273 114.784 11.8649C113.421 10.4597 111.828 9.34896 109.999 8.52993C108.173 7.71091 106.19 7.3014 104.053 7.3014C101.91 7.3014 99.9266 7.71091 98.1006 8.52993C96.2746 9.34896 94.6786 10.4597 93.3183 11.8649C91.9551 13.273 90.8836 14.9194 90.1067 16.8071C89.3297 18.6976 88.9426 20.7087 88.9426 22.8516ZM81.1984 22.8516C81.1984 19.6597 81.7958 16.6809 82.9935 13.9097C84.1884 11.1413 85.8152 8.72908 87.8712 6.6703C89.9272 4.61432 92.3506 2.9903 95.1414 1.79262C97.9323 0.594934 100.903 0.000299454 104.053 0.000299454C107.197 0.000299454 110.167 0.594934 112.958 1.79262C115.749 2.9903 118.172 4.61432 120.231 6.6703C122.287 8.72908 123.914 11.1413 125.109 13.9097C126.304 16.6809 126.904 19.6597 126.904 22.8516C126.904 25.9987 126.304 28.9579 125.109 31.7263C123.914 34.4975 122.287 36.9125 120.231 38.9685C118.172 41.0244 115.749 42.6513 112.958 43.8462C110.167 45.041 107.197 45.6385 104.053 45.6385C100.903 45.6385 97.9323 45.041 95.1414 43.8462C92.3506 42.6513 89.9272 41.0244 87.8712 38.9685C85.8152 36.9125 84.1884 34.4975 82.9935 31.7263C81.7958 28.9579 81.1984 25.9987 81.1984 22.8516ZM152.587 0.815397V37.8314H168.072V44.8856H145.033V0.815397H152.587ZM192.184 44.8854H184.633V0.815117H209.246V7.67585H192.184V18.8841H208.113V25.7477H192.184V44.8854ZM227.061 0.815397H252.243V7.67613H234.617V18.8844H250.855V25.5572H234.617V38.0249H252.367V44.8856H227.061V0.815397ZM267.918 22.8516C267.918 19.6597 268.493 16.6725 269.649 13.8816C270.801 11.0908 272.397 8.66457 274.434 6.60859C276.467 4.55542 278.871 2.9342 281.642 1.75896C284.411 0.586519 287.412 0.000299454 290.646 0.000299454C294.881 0.000299454 298.889 1.1531 302.668 3.46152V11.7051C300.738 10.2409 298.808 9.14701 296.876 8.43457C294.943 7.71932 292.887 7.36591 290.708 7.36591C288.568 7.36591 286.573 7.7642 284.725 8.56079C282.876 9.35737 281.297 10.4485 279.973 11.8313C278.652 13.2169 277.612 14.8549 276.857 16.7454C276.1 18.6331 275.724 20.6694 275.724 22.8516C275.724 24.9918 276.1 26.9972 276.857 28.8625C277.612 30.7305 278.652 32.3714 279.973 33.7766C281.297 35.1819 282.871 36.2814 284.694 37.078C286.52 37.8746 288.525 38.2757 290.708 38.2757C292.848 38.2757 294.904 37.9194 296.876 37.2042C298.847 36.4918 300.819 35.4427 302.794 34.0543V42.1801C300.78 43.3946 298.744 44.2781 296.688 44.8194C294.629 45.3664 292.595 45.6385 290.581 45.6385C287.305 45.6385 284.284 45.0607 281.516 43.9107C278.745 42.7579 276.352 41.1479 274.338 39.0947C272.324 37.0387 270.751 34.6237 269.618 31.8525C268.485 29.0841 267.918 26.0829 267.918 22.8516ZM325.584 22.8516C325.584 24.9918 325.971 27.0057 326.748 28.8933C327.525 30.7838 328.596 32.4191 329.959 33.8047C331.323 35.1903 332.919 36.2926 334.745 37.1116C336.57 37.9307 338.553 38.3374 340.694 38.3374C342.831 38.3374 344.817 37.9307 346.643 37.1116C348.469 36.2926 350.065 35.1903 351.425 33.8047C352.788 32.4191 353.86 30.7838 354.637 28.8933C355.414 27.0057 355.801 24.9918 355.801 22.8516C355.801 20.7087 355.414 18.6976 354.637 16.8071C353.86 14.9194 352.788 13.273 351.425 11.8649C350.065 10.4597 348.469 9.34896 346.643 8.52993C344.817 7.71091 342.831 7.3014 340.694 7.3014C338.553 7.3014 336.57 7.71091 334.745 8.52993C332.919 9.34896 331.323 10.4597 329.959 11.8649C328.596 13.273 327.525 14.9194 326.748 16.8071C325.971 18.6976 325.584 20.7087 325.584 22.8516ZM317.842 22.8516C317.842 19.6597 318.44 16.6809 319.635 13.9097C320.832 11.1413 322.456 8.72908 324.512 6.6703C326.568 4.61432 328.995 2.9903 331.783 1.79262C334.576 0.594934 337.547 0.000299454 340.694 0.000299454C343.841 0.000299454 346.808 0.594934 349.602 1.79262C352.393 2.9903 354.816 4.61432 356.872 6.6703C358.928 8.72908 360.555 11.1413 361.753 13.9097C362.945 16.6809 363.545 19.6597 363.545 22.8516C363.545 25.9987 362.945 28.9579 361.753 31.7263C360.555 34.4975 358.928 36.9125 356.872 38.9685C354.816 41.0244 352.393 42.6513 349.602 43.8462C346.808 45.041 343.841 45.6385 340.694 45.6385C337.547 45.6385 334.576 45.041 331.783 43.8462C328.995 42.6513 326.568 41.0244 324.512 38.9685C322.456 36.9125 320.832 34.4975 319.635 31.7263C318.44 28.9579 317.842 25.9987 317.842 22.8516ZM389.169 21.0877H395.463C397.687 21.0877 399.502 20.4902 400.907 19.2925C402.315 18.0977 403.017 16.4288 403.017 14.2886C403.017 12.1485 402.315 10.502 400.907 9.34643C399.502 8.19363 397.687 7.61582 395.463 7.61582H389.169V21.0877ZM389.169 44.8842H381.677V0.813995H395.463C397.687 0.813995 399.721 1.11131 401.569 1.69753C403.418 2.28656 405.008 3.15607 406.352 4.31168C407.695 5.46729 408.736 6.87253 409.471 8.52741C410.203 10.1851 410.573 12.084 410.573 14.2269C410.573 17.5002 409.647 20.2069 407.802 22.3442C405.953 24.4872 403.561 25.9794 400.624 26.818L413.594 44.8842H404.716L392.566 27.4463H389.169V44.8842ZM437.39 20.9617H444.251C446.475 20.9617 448.29 20.3867 449.698 19.2311C451.103 18.0783 451.807 16.429 451.807 14.2889C451.807 12.1488 451.103 10.5023 449.698 9.34671C448.29 8.19391 446.475 7.6161 444.251 7.6161H437.39V20.9617ZM444.124 0.814275C446.391 0.814275 448.458 1.12281 450.329 1.73147C452.194 2.33732 453.798 3.20964 455.142 4.34281C456.485 5.47598 457.523 6.88123 458.258 8.56135C458.993 10.2415 459.36 12.1488 459.36 14.2889C459.36 16.429 458.993 18.3307 458.258 19.9856C457.523 21.6433 456.485 23.0401 455.142 24.1733C453.798 25.3065 452.194 26.176 450.329 26.7846C448.458 27.3961 446.391 27.6962 444.124 27.6962H437.39V44.8845H429.833V0.814275H444.124ZM17.2362 44.8854L35.956 1.0339H42.8307L24.1138 44.8854H17.2362ZM64.5753 1.03446H71.4528L52.7331 44.8859H45.8555L64.5753 1.03446ZM0.000244141 1.03446H6.88622L15.4916 20.4723H8.60561L0.000244141 1.03446Z" fill="white"/>
</svg>
